X:1
T:Baker's Buck
B:Company of Fifers and Drummers, Vol 1/CCDB
M:2/4
L:1/8
Q:1/8=200
K:G
|: G>B dd|c/B/Ad2|G>B dd|c/B/A G/F/E/D/|
G>B dd|c/B/Ad2|G>B dd|efg2 :|
|: Be e/d/e/f/|gf e>d|Ad d/^c/d/e/|f/d/e/^c/ d>=c|
Be e/d/e/f/|gfe g/a/|ba gf|[1 ed BA:|[2e/d/e/f/ gz |
